packages/ffe-icons/icons/filled/md/do_not_disturb_on_total_silence.svg

<svg xmlns="http://www.w3.org/2000/svg" height="24" viewBox="0 -960 960 960" width="24"><path d="M479.955-250.001q95.814 0 162.929-67.07 67.115-67.07 67.115-162.884t-67.07-162.929q-67.07-67.115-162.884-67.115t-162.929 67.07q-67.115 67.07-67.115 162.884t67.07 162.929q67.07 67.115 162.884 67.115Zm-79.955-200q-12.75 0-21.374-8.628-8.625-8.629-8.625-21.384 0-12.756 8.625-21.371 8.624-8.615 21.374-8.615h160q12.75 0 21.375 8.628 8.624 8.629 8.624 21.384 0 12.756-8.624 21.371-8.625 8.615-21.375 8.615H400Zm80.067 350q-78.836 0-148.204-29.92-69.369-29.92-120.682-81.21-51.314-51.291-81.247-120.629-29.933-69.337-29.933-148.173t29.92-148.204q29.92-69.369 81.21-120.682 51.291-51.314 120.629-81.247 69.337-29.933 148.173-29.933t148.204 29.92q69.369 29.92 120.682 81.21 51.314 51.291 81.247 120.629 29.933 69.337 29.933 148.173t-29.92 148.204q-29.92 69.369-81.21 120.682-51.291 51.314-120.629 81.247-69.337 29.933-148.173 29.933Z"/></svg>

<svg xmlns="http://www.w3.org/2000/svg" height="24" viewBox="0 -960 960 960" width="24"><path d="M479.95-250q95.82 0 162.93-67.07Q710-384.14 710-479.95q0-95.82-67.07-162.93Q575.86-710 480.05-710q-95.82 0-162.93 67.07Q250-575.86 250-480.05q0 95.82 67.07 162.93Q384.14-250 479.95-250ZM400-450q-12.75 0-21.37-8.63-8.63-8.63-8.63-21.38 0-12.76 8.63-21.37Q387.25-510 400-510h160q12.75 0 21.37 8.63 8.63 8.63 8.63 21.38 0 12.76-8.63 21.37Q572.75-450 560-450H400Zm80.07 350q-78.84 0-148.21-29.92t-120.68-81.21q-51.31-51.29-81.25-120.63Q100-401.1 100-479.93q0-78.84 29.92-148.21t81.21-120.68q51.29-51.31 120.63-81.25Q401.1-860 479.93-860q78.84 0 148.21 29.92t120.68 81.21q51.31 51.29 81.25 120.63Q860-558.9 860-480.07q0 78.84-29.92 148.21t-81.21 120.68q-51.29 51.31-120.63 81.25Q558.9-100 480.07-100Z"/></svg>
